X:117
T:En may qu'en est la rosée
R:Motet
C:Anonyme
O:XIIIe siècle
M:3/8
L:1/8
Q:"Allegro gaio" 3/8=72
K:C
V:1
(e2f) | (g2e) | (c2d) | (B3 | c2)z | (A2c) | (B2c) | (B/A/GA/B/) | c2z |
(e2f) | (e/d/cd) | (f2g) | e2z | (c2B) | (c2d) | (e2f) | (e3 | Hc2)z |
(f2d) | (e2c) | (def) | g2z | (c2B) | (c2d) | (f2g) | e2z | (g2f/e/) | (d2B) |
(c2B) | (A3 | G2)z | (G2A/B/) | (c2d/e/) | (fed) | c2z | (f2d) | (e2c) | (A2B) |
(c3 | e2)z | (d2e) | (c2e) | (e/f/ge) | (fe2) | He2z | (e2d) | (c2f) | "Rall."(e/d/c)(c/B/) | Hc3 |]
V:2 clef=perc stafflines=1 staffscale=0.8
Bzz | Bzz | Bzz | Bz B | Bzz | Bzz | Bzz | BBB | Bzz | 
Bzz | Bzz | Bzz | Bz B | Bzz | Bzz | Bzz | BBB | BHz2 | 
Bzz | Bzz | Bzz | Bz B | Bzz | Bzz | BBB | Bzz | Bzz | Bzz | 
Bzz | BBB | Bzz | Bzz | Bzz | Bzz | Bz B | Bzz | Bzz | Bzz | 
BBB | Bzz | Bzz | Bzz | Bzz | Bz B | BHz2 | Bzz | Bzz | Bz B | BHz2 |]
V:3
c2c | (c2A) | c2z | (d2e) | (c2d) | e2z | (d2c) | (d2e) | c2z |
(A2B) | (c2A) | F2z | (A2F) | (A2G) | F2z | (G2F) | (G2A) | Hc2z |
(c2d) | (B2c) | A2z | (c2d) | f2f | c2z | (c2d) | (c2A) | c2z | (d2e) |
(c2d) | e2z | (d2c) | (d2e) | c2z | (A2B) | (c2A) | F2z | (A2F) | (A2G) |
F2z | (A2F) | (G2A) | c2z | (c2d ) | (B2c) | HA2z | (c2d) | f2f | c3- | Hc3 |]





%%header "$P0	 $IR 	$P1"
%%footer $D - Éditions Galouvielle - 2009 - À usage librement privé dans le cadre familial

